public/assets/apply/stepper/no.svg

<svg width="80" height="85" viewBox="0 0 80 85" fill="none" xmlns="http://www.w3.org/2000/svg">
<path d="M20.0849 10.9512L0.644854 21.3912L0.599854 24.4062V27.4662H40.1999H79.7999V24.4062L79.7549 21.3912L60.4049 11.0412C49.7399 5.32619 40.6949 0.646187 40.2899 0.601187C39.8849 0.556189 30.7949 5.19119 20.0849 10.9512ZM43.0349 8.65619C44.1149 9.24119 45.5998 11.7162 45.5998 12.9762C45.5998 14.6862 44.2499 17.1162 42.8549 17.7912C40.2449 19.1412 37.2749 18.3762 35.6549 15.9462C32.6849 11.4012 38.0399 6.09119 43.0349 8.65619Z" fill="#4A4A4A"/>
<path d="M9.68979 30.1212C9.28479 30.3462 9.14979 31.2912 9.23979 33.1362C9.37479 35.6562 9.41979 35.7912 10.6348 35.9262L11.8498 36.0612V46.3662V56.6712L10.6348 56.8062C9.41979 56.9412 9.37479 57.0312 9.37479 59.6412V62.3412L14.7298 62.4762C20.6698 62.6112 20.8498 62.5662 20.8498 59.7762C20.8498 57.3462 20.4898 56.7162 19.0048 56.7162H17.6998V46.3662V36.0162H18.7348C20.3098 36.0162 20.8498 35.1612 20.8498 32.7762C20.8498 31.1112 20.6698 30.5262 19.9948 30.1662C18.9598 29.6262 10.5448 29.5812 9.68979 30.1212Z" fill="#4A4A4A"/>
<path d="M26.6098 30.2112C26.0248 30.5262 25.7998 31.2462 25.7998 32.7762C25.7998 35.1612 26.3398 36.0162 27.9148 36.0162C28.9498 36.0162 28.9498 36.0162 28.9498 42.5412V49.0212L31.3348 47.9412C32.5948 47.3112 33.9448 46.8162 34.2598 46.8162C34.6648 46.8162 34.7998 45.4212 34.7998 41.4612V36.0612L36.0598 35.9262C37.2298 35.7912 37.2748 35.6562 37.4098 33.1362C37.4998 31.2912 37.3648 30.3462 36.9598 30.1212C36.1048 29.5812 27.5098 29.6712 26.6098 30.2112Z" fill="#4A4A4A"/>
<path d="M43.4398 30.1212C43.0348 30.3462 42.8998 31.2912 42.9898 33.1362C43.1248 35.6562 43.1698 35.7912 44.3848 35.9262L45.5998 36.0612V41.4612C45.5998 45.4212 45.7348 46.8162 46.1848 46.8162C46.4548 46.8162 47.8048 47.3112 49.1098 47.9412L51.4498 49.0212V42.5412C51.4498 36.0162 51.4498 36.0162 52.4848 36.0162C54.0598 36.0162 54.5998 35.1612 54.5998 32.7762C54.5998 31.1112 54.4198 30.5262 53.7448 30.1662C52.7098 29.6262 44.2948 29.5812 43.4398 30.1212Z" fill="#4A4A4A"/>
<path d="M60.3598 30.2112C59.7748 30.5262 59.5498 31.2462 59.5498 32.7762C59.5498 35.1612 60.0898 36.0162 61.6648 36.0162H62.6998V46.3662V56.7162H61.3948C59.9098 56.7162 59.5498 57.3462 59.5498 59.7762C59.5498 62.5662 59.7298 62.6112 65.6698 62.4762L71.0248 62.3412V59.6412C71.0248 57.0312 70.9798 56.9412 69.8098 56.8062L68.5498 56.6712V46.3662V36.0612L69.8098 35.9262C70.9798 35.7912 71.0248 35.6562 71.1598 33.1362C71.2498 31.2912 71.1148 30.3462 70.7098 30.1212C69.8548 29.5812 61.2598 29.6712 60.3598 30.2112Z" fill="#4A4A4A"/>
<path d="M34.3049 49.2012C28.9949 51.0012 25.6649 54.0162 23.2349 59.2362C22.1099 61.6212 21.9749 62.3862 21.9749 66.6162C21.9749 70.9812 22.0649 71.5662 23.3699 74.2662C26.8349 81.6012 33.0899 85.3362 41.0999 84.9762C48.1649 84.6612 53.6099 81.1062 56.7599 74.8062C58.3799 71.5212 58.4249 71.2062 58.4249 66.6612C58.4249 62.3862 58.2899 61.6212 57.1649 59.2362C54.7349 53.9712 50.9999 50.6862 45.5549 49.0212C41.9099 47.8962 37.9949 47.9412 34.3049 49.2012ZM46.7699 53.1162C55.9049 57.5712 58.1999 69.2712 51.4049 76.6962C48.0749 80.3412 45.0599 81.6912 40.1999 81.6912C36.9149 81.6912 36.0149 81.5112 33.8099 80.4312C26.2949 76.7412 23.0099 67.9662 26.3849 60.6312C30.0749 52.5312 38.9399 49.2912 46.7699 53.1162Z" fill="#4A4A4A"/>
<path d="M37.0048 54.6012C36.5998 54.9162 36.0598 55.5462 35.7898 56.0862C35.3848 56.8512 32.9998 64.8162 32.9998 65.4012C32.9998 65.5362 33.8998 65.7612 35.0248 65.8962C37.0048 66.2112 37.0498 66.2562 37.0498 67.8762C37.0948 69.0912 37.4998 69.9912 38.6248 71.3412L40.1998 73.1412L41.7748 71.3412C42.7198 70.2612 43.3048 69.0912 43.3048 68.4162C43.2148 66.3462 43.3498 66.2112 45.4198 65.8962C47.2198 65.6262 47.4448 65.4912 47.2198 64.6362C47.0398 64.1412 46.4998 62.0262 46.0048 60.0012C44.6998 55.0062 43.7998 54.0162 40.3348 54.0162C38.8948 54.0162 37.4098 54.2862 37.0048 54.6012Z" fill="#4A4A4A"/>
<path d="M31.965 70.4412C29.985 71.1162 30.165 71.0262 29.445 72.3312C28.995 73.2312 29.13 73.5912 30.75 75.3462C33.45 78.2712 36.06 79.3962 40.2 79.3962C44.34 79.3962 46.95 78.2712 49.65 75.3462C51.18 73.6812 51.405 73.2312 51 72.4662C50.37 71.3412 48.93 70.3962 47.175 70.0362C45.915 69.7662 45.645 69.9912 43.17 73.1412C41.73 74.9862 40.38 76.5162 40.2 76.5162C40.02 76.5162 38.67 74.9862 37.23 73.1412C35.79 71.2962 34.395 69.7662 34.125 69.7662C33.9 69.8112 32.91 70.0812 31.965 70.4412Z" fill="#4A4A4A"/>
<path d="M4.6499 68.1912V71.1162H12.2099H19.7249L19.5899 68.1912L19.4099 65.2662H12.0299H4.6499V68.1912Z" fill="#4A4A4A"/>
<path d="M60.8098 68.1912L60.6748 71.1162H68.2348H75.7498V68.1912V65.2662H68.3698H60.9898L60.8098 68.1912Z" fill="#4A4A4A"/>
<path d="M0.599854 76.5163V79.6663H12.1199C18.4649 79.6663 23.5499 79.5313 23.4599 79.3063C23.3699 79.1263 22.6499 77.7313 21.8399 76.1563L20.3999 73.3663H10.4999H0.599854V76.5163Z" fill="#4A4A4A"/>
<path d="M58.5599 76.1563C57.7499 77.7313 57.0299 79.1263 56.9399 79.3063C56.8499 79.5313 61.9349 79.6663 68.2799 79.6663H79.7999V76.5163V73.3663H69.8999H59.9999L58.5599 76.1563Z" fill="#4A4A4A"/>
</svg>

<svg xmlns="http://www.w3.org/2000/svg" width="80" height="85" fill="none"><path fill="#4A4A4A" d="M20.085 10.951.645 21.391.6 24.406v3.06h79.2v-3.06l-.045-3.015-19.35-10.35C49.74 5.326 40.695.646 40.29.601s-9.495 4.59-20.205 10.35m22.95-2.295c1.08.585 2.565 3.06 2.565 4.32 0 1.71-1.35 4.14-2.745 4.815-2.61 1.35-5.58.585-7.2-1.845-2.97-4.545 2.385-9.855 7.38-7.29M9.69 30.121c-.405.225-.54 1.17-.45 3.015.135 2.52.18 2.655 1.395 2.79l1.215.135v20.61l-1.215.135c-1.215.135-1.26.225-1.26 2.835v2.7l5.355.135c5.94.135 6.12.09 6.12-2.7 0-2.43-.36-3.06-1.845-3.06H17.7v-20.7h1.035c1.575 0 2.115-.855 2.115-3.24 0-1.665-.18-2.25-.855-2.61-1.035-.54-9.45-.585-10.305-.045M26.61 30.211c-.585.315-.81 1.035-.81 2.565 0 2.385.54 3.24 2.115 3.24 1.035 0 1.035 0 1.035 6.525v6.48l2.385-1.08c1.26-.63 2.61-1.125 2.925-1.125.405 0 .54-1.395.54-5.355v-5.4l1.26-.135c1.17-.135 1.215-.27 1.35-2.79.09-1.845-.045-2.79-.45-3.015-.855-.54-9.45-.45-10.35.09M43.44 30.121c-.405.225-.54 1.17-.45 3.015.135 2.52.18 2.655 1.395 2.79l1.215.135v5.4c0 3.96.135 5.355.585 5.355.27 0 1.62.495 2.925 1.125l2.34 1.08v-6.48c0-6.525 0-6.525 1.035-6.525 1.575 0 2.115-.855 2.115-3.24 0-1.665-.18-2.25-.855-2.61-1.035-.54-9.45-.585-10.305-.045M60.36 30.211c-.585.315-.81 1.035-.81 2.565 0 2.385.54 3.24 2.115 3.24H62.7v20.7h-1.305c-1.485 0-1.845.63-1.845 3.06 0 2.79.18 2.835 6.12 2.7l5.355-.135v-2.7c0-2.61-.045-2.7-1.215-2.835l-1.26-.135v-20.61l1.26-.135c1.17-.135 1.215-.27 1.35-2.79.09-1.845-.045-2.79-.45-3.015-.855-.54-9.45-.45-10.35.09M34.305 49.201c-5.31 1.8-8.64 4.815-11.07 10.035-1.125 2.385-1.26 3.15-1.26 7.38 0 4.365.09 4.95 1.395 7.65 3.465 7.335 9.72 11.07 17.73 10.71 7.065-.315 12.51-3.87 15.66-10.17 1.62-3.285 1.665-3.6 1.665-8.145 0-4.275-.135-5.04-1.26-7.425-2.43-5.265-6.165-8.55-11.61-10.215a18.15 18.15 0 0 0-11.25.18m12.465 3.915c9.135 4.455 11.43 16.155 4.635 23.58-3.33 3.645-6.345 4.995-11.205 4.995-3.285 0-4.185-.18-6.39-1.26-7.515-3.69-10.8-12.465-7.425-19.8 3.69-8.1 12.555-11.34 20.385-7.515"/><path fill="#4A4A4A" d="M37.005 54.601c-.405.315-.945.945-1.215 1.485-.405.765-2.79 8.73-2.79 9.315 0 .135.9.36 2.025.495 1.98.315 2.025.36 2.025 1.98.045 1.215.45 2.115 1.575 3.465l1.575 1.8 1.575-1.8c.945-1.08 1.53-2.25 1.53-2.925-.09-2.07.045-2.205 2.115-2.52 1.8-.27 2.025-.405 1.8-1.26-.18-.495-.72-2.61-1.215-4.635-1.305-4.995-2.205-5.985-5.67-5.985-1.44 0-2.925.27-3.33.585"/><path fill="#4A4A4A" d="M31.965 70.441c-1.98.675-1.8.585-2.52 1.89-.45.9-.315 1.26 1.305 3.015 2.7 2.925 5.31 4.05 9.45 4.05s6.75-1.125 9.45-4.05c1.53-1.665 1.755-2.115 1.35-2.88-.63-1.125-2.07-2.07-3.825-2.43-1.26-.27-1.53-.045-4.005 3.105-1.44 1.845-2.79 3.375-2.97 3.375s-1.53-1.53-2.97-3.375-2.835-3.375-3.105-3.375c-.225.045-1.215.315-2.16.675M4.65 68.191v2.925h15.075l-.135-2.925-.18-2.925H4.65zM60.81 68.191l-.135 2.925H75.75v-5.85H60.99zM.6 76.516v3.15h11.52c6.345 0 11.43-.135 11.34-.36-.09-.18-.81-1.575-1.62-3.15l-1.44-2.79H.6zM58.56 76.156c-.81 1.575-1.53 2.97-1.62 3.15-.09.225 4.995.36 11.34.36H79.8v-6.3H60z"/></svg>
